svg/OSM-icons/barrier #666666 °ffffff !label=enbarriers,deAbsperrungen/13035;barrier=toll_booth;!name=;!operator=;!charge=;feature_group=highway;!label=entoll booth,deMautstelle.svg

<svg xmlns="http://www.w3.org/2000/svg" viewBox="0 0 580 580" enable-background="new 0 0 580 580"><path fill="#111" stroke="#eee" stroke-width="3.408" d="m66.28 1.768c-41.34 0-64.57 21.371-64.57 65.04v450.12c0 40.844 20.894 62.23 62.19 62.23h452.02c41.31 0 62.23-20.316 62.23-62.23v-450.12c0-42.601-20.923-65.04-63.52-65.04-.003 0-448.49-.143-448.35 0z"/><g fill="#fff"><path d="m142.4 120.46l-109.29 54.08h218.58z"/><path d="m509.71 309.75c-6.461 0-12.535 1.649-17.828 4.547l-201.68-219.81-13.283 12.191 201.72 219.84c-3.857 5.86-6.109 12.871-6.109 20.411v138.59h74.36v-138.59c0-20.535-16.647-37.18-37.18-37.18"/><path d="m251.69 197.08h-218.58v288.44h218.58v-130.7h51.83v-13.521h-51.83v-144.22m-17.799 131.98h-91.49v-89.19h91.49v89.19"/></g></svg>

<?xml version="1.0" encoding="utf-8"?>
<!-- Generator: Adobe Illustrator 15.0.0, SVG Export Plug-In . SVG Version: 6.00 Build 0)  -->
<!DOCTYPE svg PUBLIC "-//W3C//DTD SVG 1.1//EN" "http://www.w3.org/Graphics/SVG/1.1/DTD/svg11.dtd">
<svg version="1.1" xmlns="http://www.w3.org/2000/svg" xmlns:xlink="http://www.w3.org/1999/xlink" x="0px" y="0px" width="580px"
	 height="580px" viewBox="0 0 580 580" enable-background="new 0 0 580 580" xml:space="preserve">
<g id="Layer_2">
	<g id="g1327">
		<path id="path1329" fill="#111111" stroke="#EEEEEE" stroke-width="3.408" d="M66.275,1.768
			c-41.335,0-64.571,21.371-64.571,65.036v450.123c0,40.844,20.894,62.229,62.192,62.229H515.92
			c41.307,0,62.229-20.316,62.229-62.229V66.804c0-42.601-20.923-65.036-63.522-65.036C514.624,1.768,66.133,1.625,66.275,1.768z"/>
	</g>
</g>
<g id="svg2" inkscape:output_extension="org.inkscape.output.svg.inkscape" inkscape:version="0.46" sodipodi:docname="waste_bin.svg" sodipodi:version="0.32" xmlns:inkscape="http://www.inkscape.org/namespaces/inkscape" xmlns:rdf="http://www.w3.org/1999/02/22-rdf-syntax-ns#" xmlns:svg="http://www.w3.org/2000/svg" xmlns:sodipodi="http://sodipodi.sourceforge.net/DTD/sodipodi-0.dtd" xmlns:cc="http://creativecommons.org/ns#" xmlns:dc="http://purl.org/dc/elements/1.1/">
	<g>
		<polygon fill="#FFFFFF" points="142.4,120.459 33.108,174.542 251.691,174.542 		"/>
		<path fill="#FFFFFF" d="M509.711,309.748c-6.461,0-12.535,1.649-17.828,4.547L290.203,94.483l-13.283,12.191l201.717,219.844
			c-3.857,5.86-6.109,12.871-6.109,20.411v138.587h74.365V346.93C546.893,326.395,530.246,309.748,509.711,309.748z"/>
		<path fill="#FFFFFF" d="M251.691,197.077H33.108v288.44h218.583V354.817h51.83v-13.521h-51.83V197.077z M233.892,329.06H142.4
			V239.87h91.492V329.06z"/>
	</g>
</g>
</svg>
